X: 367
T:Ingonish Jig
N: page 131
N: heptatonic
R: Jig
M:6/8
L:1/8
K:Edor
%
c | "Em"Bee efg | "D"fef dBA | "Em"Bee efg | "D"afe dBA |
"Em"Bee efg | "D"fef dBA | "G"B/c/dB "D"ABA | "Em"GEE E2 :|
|: A | "Em"BEE BEB | "D"AFD DFA | "Em"BEE BEB | "D"AFG Adc |
"Em"BEE "A"BEB | "D"AFD DFA | "G"Bcd "D"eBA | "Em"GEE E2 :|
